packages/assets/static/images/icons/backpack.svg

<svg width="24" height="24" viewBox="0 0 24 24" xmlns="http://www.w3.org/2000/svg">
<path d="M16.1249 4.92705V3.75049C16.1249 3.0543 15.8484 2.38662 15.3561 1.89433C14.8638 1.40205 14.1961 1.12549 13.4999 1.12549H10.4999C9.80375 1.12549 9.13607 1.40205 8.64378 1.89433C8.1515 2.38662 7.87494 3.0543 7.87494 3.75049V4.92705C6.52605 5.11012 5.28909 5.7755 4.39288 6.80011C3.49667 7.82472 3.00185 9.13923 2.99994 10.5005V21.0005C2.99994 21.4978 3.19748 21.9747 3.54911 22.3263C3.90074 22.6779 4.37766 22.8755 4.87494 22.8755H19.1249C19.6222 22.8755 20.0991 22.6779 20.4508 22.3263C20.8024 21.9747 20.9999 21.4978 20.9999 21.0005V10.5005C20.998 9.13923 20.5032 7.82472 19.607 6.80011C18.7108 5.7755 17.4738 5.11012 16.1249 4.92705ZM10.4999 3.37549H13.4999C13.5994 3.37549 13.6948 3.415 13.7651 3.48532C13.8354 3.55565 13.8749 3.65103 13.8749 3.75049V4.87549H10.1249V3.75049C10.1249 3.65103 10.1644 3.55565 10.2348 3.48532C10.3051 3.415 10.4005 3.37549 10.4999 3.37549ZM14.9999 15.3755H8.99994V14.6255C8.99994 14.526 9.03945 14.4306 9.10977 14.3603C9.1801 14.29 9.27548 14.2505 9.37494 14.2505H14.6249C14.7244 14.2505 14.8198 14.29 14.8901 14.3603C14.9604 14.4306 14.9999 14.526 14.9999 14.6255V15.3755ZM8.99994 17.6255H14.9999V20.6255H8.99994V17.6255ZM18.7499 20.6255H17.2499V14.6255C17.2499 13.9293 16.9734 13.2616 16.4811 12.7693C15.9888 12.277 15.3211 12.0005 14.6249 12.0005H9.37494C8.67875 12.0005 8.01107 12.277 7.51878 12.7693C7.0265 13.2616 6.74994 13.9293 6.74994 14.6255V20.6255H5.24994V10.5005C5.24994 9.60538 5.60552 8.74694 6.23845 8.114C6.87139 7.48107 7.72983 7.12549 8.62494 7.12549H15.3749C16.27 7.12549 17.1285 7.48107 17.7614 8.114C18.3944 8.74694 18.7499 9.60538 18.7499 10.5005V20.6255ZM14.9999 9.75049C14.9999 10.0489 14.8814 10.335 14.6704 10.546C14.4595 10.757 14.1733 10.8755 13.8749 10.8755H10.1249C9.82657 10.8755 9.54042 10.757 9.32944 10.546C9.11847 10.335 8.99994 10.0489 8.99994 9.75049C8.99994 9.45212 9.11847 9.16597 9.32944 8.95499C9.54042 8.74401 9.82657 8.62549 10.1249 8.62549H13.8749C14.1733 8.62549 14.4595 8.74401 14.6704 8.95499C14.8814 9.16597 14.9999 9.45212 14.9999 9.75049Z"/>
</svg>

<svg viewBox="0 0 24 24" xmlns="http://www.w3.org/2000/svg" aria-hidden="true" fill="currentColor" height="24px" width="24px"><path d="M16.125 4.927V3.75A2.625 2.625 0 0 0 13.5 1.125h-3A2.625 2.625 0 0 0 7.875 3.75v1.177A5.63 5.63 0 0 0 3 10.501V21a1.875 1.875 0 0 0 1.875 1.874h14.25A1.875 1.875 0 0 0 21 21V10.5a5.63 5.63 0 0 0-4.875-5.573M10.5 3.375h3a.375.375 0 0 1 .375.375v1.125h-3.75V3.75a.375.375 0 0 1 .375-.375m4.5 12H9v-.75a.375.375 0 0 1 .375-.374h5.25a.375.375 0 0 1 .375.375zm-6 2.25h6v3H9zm9.75 3h-1.5v-6a2.625 2.625 0 0 0-2.625-2.624h-5.25a2.625 2.625 0 0 0-2.625 2.625v6h-1.5V10.5a3.375 3.375 0 0 1 3.375-3.376h6.75a3.375 3.375 0 0 1 3.375 3.376zM15 9.75a1.125 1.125 0 0 1-1.125 1.126h-3.75a1.125 1.125 0 1 1 0-2.25h3.75A1.125 1.125 0 0 1 15 9.75"/></svg>
